X:1
T:Title
%%score { ( 1 4 ) | ( 2 3 ) }
L:1/8
M:9/8
K:Ab
V:1 treble nm="Grand Piano"
V:4 treble 
V:2 bass 
V:3 bass 
V:1
 z3 z3[Q:1/4=100] [CE][A,C][CE] | [CA]3 [EA]3 BAB | [Ec]6 cde | e3 [Ec]3 [=Dc]2 [DB] |[M:3/4] B6 | %5
[M:3/8] Bcd |[M:9/8] d6 z3 | c6 z3 | e3 c3 [DGB]2 [CEA] |[M:3/4] [CEA]6 |] %10
V:2
 z3 z3 [A,,E,]2 [A,,E,] | z3 z3 .[E,E]3 | z3 z3 .[A,E]3 | [A,CE]3 [A,,A,]3 [B,,A,]2 [B,,A,] | %4
[M:3/4] [E,G,E]6 |[M:3/8] z3 |[M:9/8] [E,G,E]2 [E,G,] [E,G,]3 z3 | %7
 [A,,A,]2 [A,,A,] [A,,A,]3[K:treble] [A,C]2 [A,CA] | [A,CA]3 [A,EA]3[K:bass] E,2 A,, | %9
[M:3/4] A,,6 |] %10
V:3
 x9 | [A,,E,]3 [C,A,]3 G,F,[E,G,E] | [A,,A,]6 z B,[A,CE] | x9 |[M:3/4] x6 |[M:3/8] x3 |[M:9/8] x9 | %7
 x6[K:treble] x3 | x6[K:bass] x3 |[M:3/4] x6 |] %10
V:4
 x9 | x9 | x9 | x9 |[M:3/4] x6 |[M:3/8] x3 |[M:9/8] z2 E E3 BAB | E2 E E3 Ace | x9 |[M:3/4] x6 |] %10

